build/images/icons/no-publish.svg

<svg width="195" height="195" viewBox="0 0 195 195" fill="none" xmlns="http://www.w3.org/2000/svg">
<circle cx="97.5" cy="97.5" r="96.5" stroke="#00BBD3"/>
<path fill-rule="evenodd" clip-rule="evenodd" d="M100.122 95.9391C116.736 95.9391 130.204 82.4709 130.204 65.857C130.204 49.2431 116.736 35.7749 100.122 35.7749C83.5082 35.7749 70.0399 49.2431 70.0399 65.857C70.0399 82.0187 82.7849 95.2036 98.7725 95.9094V94.2368H99.7725V95.9372C99.8889 95.9385 100.005 95.9391 100.122 95.9391ZM69.0399 65.857C69.0399 82.571 82.2324 96.2038 98.7725 96.9104V120.787C77.5292 121.245 60.3381 126.48 41.7221 139.777C41.4974 139.938 41.4454 140.25 41.6059 140.475C41.7664 140.699 42.0786 140.751 42.3034 140.591C61.1354 127.14 78.4562 122.026 100.129 121.765C121.784 121.504 139.103 127.134 157.942 140.591C158.167 140.751 158.479 140.699 158.64 140.475C158.8 140.25 158.748 139.938 158.523 139.777C139.524 126.206 122 120.501 100.117 120.765C100.002 120.766 99.8872 120.768 99.7725 120.769V96.9372C99.8889 96.9385 100.005 96.9391 100.122 96.9391C117.288 96.9391 131.204 83.0232 131.204 65.857C131.204 48.6908 117.288 34.7749 100.122 34.7749C82.9559 34.7749 69.0399 48.6908 69.0399 65.857ZM106.881 72.6143C114.344 72.6143 120.395 66.5639 120.395 59.1003C120.395 51.6368 114.344 45.5864 106.881 45.5864C99.4172 45.5864 93.3668 51.6368 93.3668 59.1003C93.3668 66.5639 99.4172 72.6143 106.881 72.6143Z" fill="#00BBD3"/>
</svg>

<svg width="195" height="195" fill="none" xmlns="http://www.w3.org/2000/svg"><circle cx="97.5" cy="97.5" r="96.5" stroke="#00BBD3"/><path fill-rule="evenodd" clip-rule="evenodd" d="M100.122 95.94c16.614 0 30.082-13.47 30.082-30.083 0-16.614-13.468-30.082-30.082-30.082S70.04 49.243 70.04 65.857c0 16.162 12.745 29.347 28.732 30.052v-1.672h1v1.7c.117.002.233.002.35.002zM69.04 65.856c0 16.714 13.192 30.347 29.732 31.053v23.877c-21.243.458-38.434 5.693-57.05 18.99a.5.5 0 00.581.814c18.832-13.451 36.153-18.565 57.826-18.826 21.655-.261 38.974 5.369 57.813 18.826a.501.501 0 00.581-.814C139.524 126.205 122 120.5 100.117 120.764l-.345.004V96.937c.117.002.233.002.35.002 17.166 0 31.082-13.916 31.082-31.082s-13.916-31.082-31.082-31.082S69.04 48.69 69.04 65.857zm37.841 6.757c7.463 0 13.514-6.05 13.514-13.514 0-7.463-6.051-13.514-13.514-13.514-7.464 0-13.514 6.05-13.514 13.514 0 7.464 6.05 13.514 13.514 13.514z" fill="#00BBD3"/></svg>
